X: 157
T: No_65_Hunting_Song_(a).krn
N: Derived from No_65_Hunting_Song_(a).krn
%%abc-version 2.0
%%abcx-abcm2ps-target-version 5.9.1 (29 Sep 2008)
%%abc-creator hum2abc beta
%%abcx-conversion-date 2019/03/15 08:29:13
%%humdrum-veritas 2093770752
%%humdrum-veritas-data 4040085655
%%linebreak <none>
%%barnumbers 0
L: 1/4
M: 6/4
K: Eb clef=bass
[K:clef=bass][M:6/4]D/D/CD/D/DDC | 
B,3B,B,2 | 
D/D/CD/D/DDC ||  
[M:3/4]B,B,/G,/F, ||  
[M:4/4]E,3/E,/E,F, ||  
[M:6/4]B,/B,/B,A,/A,/A,A,A, ||  
[M:2/4]F,2 ||  
[M:6/4]A,/A,/A,_F,/F,/E,=F,F, | 
E,3E,E,E, | 
B,/B,/B,B,/B,/B,CC | 
B,3B,B,2 | 
D/D/CD/D/DDC ||  
[M:3/4]B,B,/G,/F, ||  
[M:4/4]E,3/E,/E,F, ||  
[M:6/4]B,/B,/B,A,/A,/A,A,A, ||  
[M:2/4]F,2 ||  
[M:6/4]A,/A,/A,_F,/F,/E,=F,F, | 
E,3E,E,E, |]  



